src/assets/icons/print.svg

<svg width="14" height="14" viewBox="0 0 14 14" fill="none" xmlns="http://www.w3.org/2000/svg">
<g id="print">
<g clip-path="url(#clip0_156_4620)">
<path id="Vector" fill-rule="evenodd" clip-rule="evenodd" d="M4.4 1.2V3.2H9.6V1.2H4.4ZM2.2 3.2H3.2V1C3.2 0.452629 3.65263 0 4.2 0H9.8C10.3474 0 10.8 0.452629 10.8 1V3.2H11.8C13.0114 3.2 14 4.18863 14 5.4V8.6C14 9.81137 13.0114 10.8 11.8 10.8H10.8V13C10.8 13.5523 10.3523 14 9.8 14H4.2C3.64772 14 3.2 13.5523 3.2 13V10.8H2.2C0.988629 10.8 0 9.81137 0 8.6V5.4C0 4.18863 0.988629 3.2 2.2 3.2ZM4.4 10.2V12.8H9.6V10.2V7.6H4.4V10.2ZM10.8 9.6V7.4C10.8 6.84771 10.3523 6.4 9.8 6.4H4.2C3.64772 6.4 3.2 6.84771 3.2 7.4V9.6H2.2C1.65137 9.6 1.2 9.14863 1.2 8.6V5.4C1.2 4.85137 1.65137 4.4 2.2 4.4H3.8H10.2H11.8C12.3486 4.4 12.8 4.85137 12.8 5.4V8.6C12.8 9.14863 12.3486 9.6 11.8 9.6H10.8Z" fill="black"/>
</g>
</g>
<defs>
<clipPath id="clip0_156_4620">
<rect width="14" height="14" fill="white"/>
</clipPath>
</defs>
</svg>

<svg xmlns="http://www.w3.org/2000/svg" fill="none" viewBox="0 0 14 14"><g clip-path="url(#a)"><path fill="#000" fill-rule="evenodd" d="M4.4 1.2v2h5.2v-2zm-2.2 2h1V1c0-.547.453-1 1-1h5.6c.547 0 1 .453 1 1v2.2h1c1.211 0 2.2.989 2.2 2.2v3.2c0 1.211-.989 2.2-2.2 2.2h-1V13a1 1 0 0 1-1 1H4.2a1 1 0 0 1-1-1v-2.2h-1C.989 10.8 0 9.811 0 8.6V5.4c0-1.211.989-2.2 2.2-2.2m2.2 7v2.6h5.2V7.6H4.4zm6.4-.6V7.4a1 1 0 0 0-1-1H4.2a1 1 0 0 0-1 1v2.2h-1c-.549 0-1-.451-1-1V5.4c0-.549.451-1 1-1h9.6c.549 0 1 .451 1 1v3.2c0 .549-.451 1-1 1z" clip-rule="evenodd"/></g><defs><clipPath id="a"><path fill="#fff" d="M0 0h14v14H0z"/></clipPath></defs></svg>
